images/partnership.svg

<svg width="66" height="50" viewBox="0 0 66 50" fill="none" xmlns="http://www.w3.org/2000/svg">
<circle cx="18.3957" cy="41.2414" r="7.63363" transform="rotate(-180 18.3957 41.2414)" stroke="#7ACC00"/>
<circle cx="18.3957" cy="41.2414" r="7.63363" transform="rotate(-180 18.3957 41.2414)" stroke="#7ACC00"/>
<path fill-rule="evenodd" clip-rule="evenodd" d="M7.44556 31.9031V23.5039C7.44556 21.7189 5.99858 20.2719 4.21365 20.2719C2.42872 20.2719 0.981743 21.7189 0.981743 23.5039V31.9031H1.98174V23.5039C1.98174 22.2712 2.981 21.2719 4.21365 21.2719C5.4463 21.2719 6.44556 22.2712 6.44556 23.5039V31.9031H7.44556Z" fill="#7ACC00"/>
<path fill-rule="evenodd" clip-rule="evenodd" d="M35.4858 20.0312V30.7446C35.4858 36.7513 31.4119 41.8065 25.8765 43.298C25.7698 43.687 25.6335 44.0638 25.4703 44.4258C31.7684 43.0582 36.4858 37.4523 36.4858 30.7446V20.0312H35.4858ZM1.97822 31.8149C2.40897 37.1005 6.00152 41.4915 10.8615 43.0937C10.9594 43.4933 11.0883 43.8808 11.2455 44.2534C5.63497 42.7247 1.42713 37.7942 0.975098 31.8149H1.97822Z" fill="#7ACC00"/>
<circle cx="47.7892" cy="8.38363" r="7.63363" stroke="white"/>
<circle cx="47.7892" cy="8.38363" r="7.63363" stroke="white"/>
<path fill-rule="evenodd" clip-rule="evenodd" d="M58.7236 17.6597V26.0589C58.7236 27.8438 60.1706 29.2908 61.9555 29.2908C63.7405 29.2908 65.1874 27.8438 65.1874 26.0589V17.6597H64.1874V26.0589C64.1874 27.2915 63.1882 28.2908 61.9555 28.2908C60.7229 28.2908 59.7236 27.2915 59.7236 26.0589V17.6597H58.7236Z" fill="white"/>
<path fill-rule="evenodd" clip-rule="evenodd" d="M40.7144 5.19922C40.5512 5.56123 40.415 5.93802 40.3083 6.32702C34.7728 7.8185 30.699 12.8737 30.699 18.8804V29.4375H29.699V18.8804C29.699 12.1727 34.4163 6.56675 40.7144 5.19922ZM64.2065 17.8101C63.7758 12.5245 60.1832 8.13346 55.3232 6.53132C55.2253 6.1317 55.0964 5.74423 54.9393 5.37161C60.5498 6.90029 64.7576 11.8308 65.2096 17.8101H64.2065Z" fill="white"/>
</svg>

<?xml version="1.0" encoding="utf-8"?>
<!-- Generator: Adobe Illustrator 23.0.1, SVG Export Plug-In . SVG Version: 6.00 Build 0)  -->
<svg version="1.1" id="Layer_1" xmlns="http://www.w3.org/2000/svg" xmlns:xlink="http://www.w3.org/1999/xlink" x="0px" y="0px"
	 viewBox="0 0 66 50" style="enable-background:new 0 0 66 50;" xml:space="preserve">
<style type="text/css">
	.st0{fill:none;stroke:#7ACC00;}
	.st1{fill:none;stroke:#93CB40;}
	.st2{fill-rule:evenodd;clip-rule:evenodd;fill:#93CB40;}
	.st3{fill:none;stroke:#FFFFFF;}
	.st4{fill-rule:evenodd;clip-rule:evenodd;fill:#FFFFFF;}
</style>
<circle class="st0" cx="18.4" cy="41.2" r="7.6"/>
<circle class="st1" cx="18.4" cy="41.2" r="7.6"/>
<path class="st2" d="M7.4,31.9v-8.4c0-1.8-1.4-3.2-3.2-3.2S1,21.7,1,23.5v8.4h1v-8.4c0-1.2,1-2.2,2.2-2.2s2.2,1,2.2,2.2v8.4H7.4z"/>
<path class="st2" d="M35.5,20v10.7c0,6-4.1,11.1-9.6,12.6c-0.1,0.4-0.2,0.8-0.4,1.1c6.3-1.4,11-7,11-13.7V20H35.5z M2,31.8
	c0.4,5.3,4,9.7,8.9,11.3c0.1,0.4,0.2,0.8,0.4,1.2C5.6,42.7,1.4,37.8,1,31.8H2z"/>
<circle class="st3" cx="47.8" cy="8.4" r="7.6"/>
<circle class="st3" cx="47.8" cy="8.4" r="7.6"/>
<path class="st4" d="M58.7,17.7v8.4c0,1.8,1.4,3.2,3.2,3.2c1.8,0,3.2-1.4,3.2-3.2v-8.4h-1v8.4c0,1.2-1,2.2-2.2,2.2
	c-1.2,0-2.2-1-2.2-2.2v-8.4H58.7z"/>
<path class="st4" d="M40.7,5.2c-0.2,0.4-0.3,0.7-0.4,1.1c-5.5,1.5-9.6,6.5-9.6,12.6v10.6h-1V18.9C29.7,12.2,34.4,6.6,40.7,5.2z
	 M64.2,17.8c-0.4-5.3-4-9.7-8.9-11.3c-0.1-0.4-0.2-0.8-0.4-1.2c5.6,1.5,9.8,6.5,10.3,12.4H64.2z"/>
</svg>
